X: 2
T: Z is for Fiddles
C: John Sarney
O: Naples, Florida
%R: reel
Z: Collected and edited 2014 by John Chambers <jc:trillian.mit.edu>
B: GEMS The Best of the Country Dance and Song Society Diamond Jubilee Music, Dance and Song Contest 1993 p.85 #2
M: C|
L: 1/8
K: Em
% - - - - - - - - - - - - - - - - - - - - - - - - -
d2 |\
"Em"e2B2 B2d2 | "Em"efed "D"Bdef | "G"g2B2 BAG2 | "Am"A3B "D"A2Bd | "Em"e2B2 B2d2 |
"Em"efed "D"Bdef | "G"g2ga "D"gedc | "G"B2G2 G2 :: B2 | "C"c3d cGEG | cBcd cBAG |
"D"A2A2 "Em"BAGB | "Am"A2ef "D"edBd | "G"g2ga ged2 | "Em"edef edBd | "Am"c2BA "D7"DFAc | "G"B2G2 G2 :|
% - - - - - - - - - - - - - - - - - - - - - - - - -
